svg/rub.svg

<?xml version="1.0" encoding="UTF-8"?>
<svg xmlns="http://www.w3.org/2000/svg" xmlns:xlink="http://www.w3.org/1999/xlink" width="32" height="32" viewBox="0 0 32 32">
<rect x="-3.2" y="-3.2" width="38.4" height="38.4" fill="rgb(100%, 100%, 100%)" fill-opacity="1"/>
<path fill-rule="nonzero" fill="rgb(40%, 40%, 40%)" fill-opacity="1" d="M 32 32 L 0 32 L 0 0 L 32 0 Z M 3.105469 28.800781 L 28.929688 28.800781 L 28.929688 3.199219 L 3.105469 3.199219 "/>
<path fill-rule="nonzero" fill="rgb(60%, 13.72549%, 8.235294%)" fill-opacity="1" stroke-width="0.32" stroke-linecap="butt" stroke-linejoin="miter" stroke="rgb(100%, 100%, 100%)" stroke-opacity="1" stroke-miterlimit="4" d="M 23.839844 8.160156 L 23.839844 23.839844 L 19.902344 12.097656 Z M 8.160156 23.839844 L 23.839844 23.839844 L 12.097656 19.902344 Z M 12.097656 19.902344 L 23.871094 23.808594 L 16 16 Z M 16 16 L 23.839844 23.839844 L 19.902344 12.097656 Z M 8.160156 19.902344 L 8.160156 23.808594 L 12.0625 19.902344 Z M 16 16 L 12.097656 16 L 12.097656 19.902344 Z M 19.902344 12.097656 L 16 12.097656 L 16 16 Z M 23.839844 8.160156 L 19.902344 8.160156 L 19.902344 12.0625 Z M 12.097656 16 L 8.160156 19.902344 L 12.0625 19.902344 L 12.0625 16 Z M 16 12.097656 L 12.097656 16 L 16 16 Z M 19.902344 8.160156 L 16 12.097656 L 19.902344 12.097656 Z M 19.902344 8.160156 "/>
</svg>

<svg role="img" viewBox="0 0 32 32" xmlns="http://www.w3.org/2000/svg"><path d="M-3.2-3.2h38.4v38.4H-3.2z" fill="rgb(100%, 100%, 100%)"/><path d="M32 32H0V0h32ZM3.105 28.8H28.93V3.2H3.105" fill="rgb(40.000001%, 40.000001%, 40.000001%)"/><path d="M23.84 8.16v15.68l-3.938-11.742ZM8.16 23.84h15.68l-11.742-3.938Zm3.938-3.938L23.87 23.81 16 16ZM16 16l7.84 7.84-3.938-11.742Zm-7.84 3.902v3.907l3.903-3.907ZM16 16h-3.902v3.902Zm3.902-3.902H16V16ZM23.84 8.16h-3.938v3.903ZM12.098 16 8.16 19.902h3.903V16ZM16 12.098 12.098 16H16Zm3.902-3.938L16 12.098h3.902Zm0 0" fill="rgb(60.000002%, 13.725491%, 8.235294%)" stroke="rgb(100%, 100%, 100%)" stroke-width=".32"/></svg>
